icons/svg/camera_124.svg

<?xml version="1.0" encoding="UTF-8"?>
<svg width="124px" height="124px" viewBox="0 0 124 124" version="1.1" xmlns="http://www.w3.org/2000/svg" xmlns:xlink="http://www.w3.org/1999/xlink">
    <!-- Generator: Sketch 57.1 (83088) - https://sketch.com -->
    <title>camera_124</title>
    <desc>Created with Sketch.</desc>
    <g id="Icons-Webex" stroke="none" stroke-width="1" fill="none" fill-rule="evenodd">
        <g id="activities/camera_124" fill="#171B1F">
            <path d="M122,85.0034 C122,86.3934 121.213,87.5784 119.945,88.0974 C118.709,88.6044 117.354,88.3234 116.409,87.3644 L93.009,63.6034 L93.009,60.3974 L116.409,36.6354 C117.354,35.6764 118.709,35.3964 119.945,35.9024 C121.213,36.4214 122,37.6074 122,38.9964 L122,85.0034 Z M92.009,92.8334 C92.009,98.8824 87.088,103.8034 81.039,103.8034 L12.97,103.8034 C6.921,103.8034 2,98.8824 2,92.8334 L2,30.9694 C2,24.9204 6.921,20.0004 12.97,20.0004 L81.039,20.0004 C87.088,20.0004 92.009,24.9204 92.009,30.9694 L92.009,92.8334 Z M120.325,34.9764 C118.705,34.3124 116.932,34.6784 115.696,35.9334 L93.009,58.9714 L93.009,30.9694 C93.009,24.3694 87.64,19.0004 81.039,19.0004 L12.97,19.0004 C6.369,19.0004 1,24.3694 1,30.9694 L1,92.8334 C1,99.4334 6.369,104.8034 12.97,104.8034 L81.039,104.8034 C87.64,104.8034 93.009,99.4334 93.009,92.8334 L93.009,65.0284 L115.696,88.0664 C116.524,88.9064 117.594,89.3494 118.697,89.3484 C119.24,89.3484 119.791,89.2424 120.325,89.0234 C121.975,88.3474 123,86.8074 123,85.0034 L123,38.9964 C123,37.1924 121.975,35.6524 120.325,34.9764 L120.325,34.9764 Z" id="fill"></path>
        </g>
    </g>
</svg>

<svg width="124" height="124" xmlns="http://www.w3.org/2000/svg"><path d="M122 85.003c0 1.39-.787 2.575-2.055 3.094-1.236.507-2.591.226-3.536-.733l-23.4-23.76v-3.207l23.4-23.762c.945-.959 2.3-1.239 3.536-.733 1.268.52 2.055 1.705 2.055 3.094v46.007zm-29.991 7.83c0 6.05-4.921 10.97-10.97 10.97H12.97c-6.049 0-10.97-4.92-10.97-10.97V30.97C2 24.92 6.921 20 12.97 20h68.069c6.049 0 10.97 4.92 10.97 10.97v61.863zm28.316-57.857c-1.62-.664-3.393-.298-4.629.957L93.009 58.971V30.97c0-6.6-5.369-11.969-11.97-11.969H12.97C6.369 19 1 24.37 1 30.97v61.863c0 6.6 5.369 11.97 11.97 11.97h68.069c6.601 0 11.97-5.37 11.97-11.97V65.028l22.687 23.038c.828.84 1.898 1.283 3.001 1.282.543 0 1.094-.106 1.628-.325 1.65-.676 2.675-2.216 2.675-4.02V38.996c0-1.804-1.025-3.344-2.675-4.02z" fill="#171B1F" fill-rule="evenodd"/></svg>
